symbols/web/power/materialsymbolsoutlined/power_wght500gradN25fill1_48px.svg

<svg xmlns="http://www.w3.org/2000/svg" height="48" width="48"><path d="M18.8 42.05v-6.1l-6.9-7.6v-10.6q0-1.35.95-2.325.95-.975 2.3-.975h3.6L17.1 16.1V5.9h3.3v8.5h7.2V5.9h3.3v10.2l-1.65-1.65h3.6q1.4 0 2.35.975.95.975.95 2.325v10.6l-6.95 7.6v6.1Z"/></svg>

<svg xmlns="http://www.w3.org/2000/svg" height="48" width="48"><path d="M18.8 42.05V35.95L11.9 28.35V17.75Q11.9 16.45 12.775 15.475Q13.65 14.5 14.95 14.45L17.1 14.4V5.9H20.4V14.4H27.6V5.9H30.9V14.4L33.05 14.45Q34.35 14.5 35.25 15.475Q36.15 16.45 36.15 17.75V28.35L29.2 35.95V42.05Z"/></svg>
